!! 00000] TT[WS
!!!OTL: Da Liancheng
!!!ARE: Asia, China,ÿShanxi Licheng
!! Ethnic Group: Han
!! WI, 153 (2)
!!!SCT: J0185
!!!YEM: Copyright 1995, estate of Helmut Schaffrath.
**kern
*ICvox
*Ivox
*M2/4
*k[]
*C:
{4cc
8g
8a
=1
2cc
=2
8ee
8b
8a
8g
=3
2e}
=4
{8cc
8dd
4ee
=5
8dd
8ee
4cc
=6
8ee
8b
8a
8g
=7
2e}
=8
{8cc
8a
4cc
=9
8a
8g
4e
=10
8cc
8a
8cc
8cc
=11
8a
8g
4e}
=12
{8cc
8dd
8ee
8cc
=13
2dd
=14
8cc
8dd
4ee
=15
8dd
8ee
4cc
=16
4ee
8g
8a
=17
4cc
8b
8a
=18
2g}
==
!!!AGN: Xiaodiao. Qingge
!!!ONB: ESAC (Essen Associative Code) Database: CHINA
!!!AMT: simple duple
!!!AIN: vox
!!!EED: Helmut Schaffrath
!!!EEV: 1.0
*-
